X:1
T:All in a play
T:All in a play
T:Traditional
C:Traditional
%%score ( 1 2 )
L:1/8
Q:1/4=114
M:3/4
K:C
V:1 treble nm="Piano" snm="Pno."
V:2 treble 
V:1
"^Moderato" e2 c2 e2 | g6 | f2 e2 d2 | c6 | d2 d2 e2 | f2 e2 d2 | e2 e2 f2 | g6 | g2 e2 c2 | %9
 g2 e2 c2 | f2 e2 d2 | c6 |] %12
V:2
 G6 | G6 | G6 | G6 | G6 | G6 | G6 | G6 | G6 | G6 | G6 | G6 |] %12

